X:163
T:An Dara Pholca D\'alaigh
R:polka
D:Brendan Begley & Caoimh\'in \'O Raghallaigh: A Moment of Madness
Z:id:hn-polka-163
M:2/4
L:1/8
K:G
Bd ce | dg bg | fg ad | Bd gd |
Bd ce | dg bg | fg af | ag g2 :|
|: gf e/f/g/e/ | dB BA/B/ | cB Ac | BG Gd |
gf e/f/g/e/ | dB Bd | ea af | ag g2 :|

